!!!COM: Leoš [Leo Eugen] Janáček
!!!OTL: [T145_Jan-w49p20h4m2-10]
**kern	**dynam	**kern	**dynam	**kern	**dynam	**kern	**dynam	**kern	**dynam
*grp:A	*	*grp:A	*	*grp:B	*	*grp:B	*	*grp:A	*
*part5	*	*part4	*	*part3	*	*part2	*	*part1	*
*staff5	*	*staff4	*	*staff3	*	*staff2	*	*staff1	*
*Icello	*	*Iviola	*	*Ivioln	*	*Ivioln	*	*Iclars	*
*I"Violoncello	*	*I"Viola	*	*I"Violin II	*	*I"Violin I	*	*I"Clarinet in Bb	*
*I'Vc.	*	*I'Vla.	*	*I'Vln. II	*	*I'Vln. I	*	*I'Cl.	*
*clefF4	*	*clefC3	*	*clefG2	*	*clefG2	*	*clefG2	*
*	*	*	*	*	*	*	*	*ITrd1c2	*
*k[]	*	*k[]	*	*k[]	*	*k[]	*	*k[b-e-]	*
*M2/4	*	*M2/4	*	*M2/4	*	*M2/4	*	*M2/4	*
=2	=2	=2	=2	=2	=2	=2	=2	=2	=2
!	!	!	!	!	!	!	!	!LO:TX:t= [Più mosso ([quarter]=144)]	!
!	!	!	!	!	!	!	!	!LO:T:n=2:a	!
(16D-XLL	.	2r	.	8r	.	8r	.	2f-_ 2a-_	.
16DD-XJ)	.	.	.	.	.	.	.	.	.
8EE-XJ	.	.	.	(4.e-X	f	(4.ee-X	f	.	.
8C-XL	.	.	.	.	.	.	.	.	.
(16D-L	.	.	.	.	.	.	.	.	.
16FF-XJJ)	.	.	.	.	.	.	.	.	.
=3	=3	=3	=3	=3	=3	=3	=3	=3	=3
!	!	!	!	!LO:TX:b:i:t=espress.	!	!LO:TX:b:i:t=espress.	!	!	!
(16D-XLL	.	2r	.	4.a-X	.	4.aa-X	.	2f-_ 2a-_	.
16DD-XJ)	.	.	.	.	.	.	.	.	.
8EE-XJ	.	.	.	.	.	.	.	.	.
8C-XL	.	.	.	.	.	.	.	.	.
(16D-L	.	.	.	[8b-X	<	[8bb-X	<	.	.
16FF-XJJ)	.	.	.	.	.	.	.	.	.
=4	=4	=4	=4	=4	=4	=4	=4	=4	=4
(16D-XLL	.	2r	.	4b-]	.	4bb-]	.	2f-_ 2a-_	.
16DD-XJ)	.	.	.	.	.	.	.	.	.
8EE-XJ	.	.	.	.	.	.	.	.	.
8C-XL	.	.	.	[4dd-X	[	[4ddd-X	[	.	.
(16D-L	.	.	.	.	.	.	.	.	.
16FF-XJJ)	.	.	.	.	.	.	.	.	.
=5	=5	=5	=5	=5	=5	=5	=5	=5	=5
(16D-XLL	.	2r	.	8dd-]	.	8ddd-]	.	2f-] 2a-]	.
16DD-XJ)	.	.	.	.	.	.	.	.	.
8EE-XJ	.	.	.	4.ee-X)	.	4.eee-X)	.	.	.
8C-XL	.	.	.	.	.	.	.	.	.
(16D-L	.	.	.	.	.	.	.	.	.
16FF-XJJ)	.	.	.	.	.	.	.	.	.
=6:|!	=6:|!	=6:|!	=6:|!	=6:|!	=6:|!	=6:|!	=6:|!	=6:|!	=6:|!
(16D-XLL	mf	8f-X'L 8a-X	mf	8r	.	8r	.	8f-XL 8a-X	.
16DD-XJ	.	.	.	.	.	.	.	.	.
8EE-XJ	.	8f-'J 8a-	.	(4.e-X	.	(4.ee-X	.	8f- 8a-	.
8C-XL	.	8f-'L 8a-	.	.	.	.	.	8f- 8a-	.
16D-L	.	8f-'J 8a-	.	.	.	.	.	[8f-J [8a-	.
16FF-XJJ)	.	.	.	.	.	.	.	.	.
=7	=7	=7	=7	=7	=7	=7	=7	=7	=7
*	*	*tremolo	*	*	*	*	*	*	*
(16D-XLL	.	(32f-XLLL	.	4.a-X	.	4.aa-X	.	2f-_ 2a-_	.
.	.	.	.	.	.	.	.	.	.
.	.	32a-X	.	.	.	.	.	.	.
.	.	.	.	.	.	.	.	.	.
16DD-XJ	.	32f-X	.	.	.	.	.	.	.
.	.	.	.	.	.	.	.	.	.
.	.	32a-X	.	.	.	.	.	.	.
.	.	.	.	.	.	.	.	.	.
8EE-XJ	.	32f-X	.	.	.	.	.	.	.
.	.	.	.	.	.	.	.	.	.
.	.	32a-X	.	.	.	.	.	.	.
.	.	.	.	.	.	.	.	.	.
.	.	32f-X	.	.	.	.	.	.	.
.	.	.	.	.	.	.	.	.	.
.	.	32a-X	.	.	.	.	.	.	.
.	.	.	.	.	.	.	.	.	.
8C-XL	.	32f-X	.	.	.	.	.	.	.
.	.	.	.	.	.	.	.	.	.
.	.	32a-X	.	.	.	.	.	.	.
.	.	.	.	.	.	.	.	.	.
.	.	32f-X	.	.	.	.	.	.	.
.	.	.	.	.	.	.	.	.	.
.	.	32a-X	.	.	.	.	.	.	.
.	.	.	.	.	.	.	.	.	.
16D-L	.	32f-X	.	[8b-X	<	[8bb-X	<	.	.
.	.	.	.	.	.	.	.	.	.
.	.	32a-X	.	.	.	.	.	.	.
.	.	.	.	.	.	.	.	.	.
16FF-XJJ)	.	32f-X	.	.	.	.	.	.	.
.	.	.	.	.	.	.	.	.	.
.	.	32a-XJJJ)	.	.	.	.	.	.	.
.	.	.	.	.	.	.	.	.	.
=8	=8	=8	=8	=8	=8	=8	=8	=8	=8
(16D-XLL	.	(32f-XLLL	.	4b-]	.	4bb-]	.	2f-_ 2a-_	.
.	.	32a-X	.	.	.	.	.	.	.
16DD-XJ	.	32f-X	.	.	.	.	.	.	.
.	.	32a-X	.	.	.	.	.	.	.
8EE-XJ	.	32f-X	.	.	.	.	.	.	.
.	.	32a-X	.	.	.	.	.	.	.
.	.	32f-X	.	.	.	.	.	.	.
.	.	32a-X	.	.	.	.	.	.	.
8C-XL	.	32f-X	.	[4dd-X	.	[4ddd-X	.	.	.
.	.	32a-X	.	.	.	.	.	.	.
.	.	32f-X	.	.	.	.	.	.	.
.	.	32a-X	.	.	.	.	.	.	.
16D-L	.	32f-X	.	.	.	.	.	.	.
.	.	32a-X	.	.	.	.	.	.	.
16FF-XJJ)	.	32f-X	.	.	.	.	.	.	.
.	.	32a-XJJJ)	.	.	.	.	.	.	.
=9	=9	=9	=9	=9	=9	=9	=9	=9	=9
(16D-XLL	.	(32f-XLLL	.	8dd-]	.	8ddd-]	.	2f-_ 2a-_	.
.	.	32a-X	.	.	.	.	.	.	.
16DD-XJ	.	32f-X	.	.	.	.	.	.	.
.	.	32a-X	.	.	.	.	.	.	.
8EE-XJ	.	32f-X	.	[4.ee-X	[	[4.eee-X	[	.	.
.	.	32a-X	.	.	.	.	.	.	.
.	.	32f-X	.	.	.	.	.	.	.
.	.	32a-X	.	.	.	.	.	.	.
8C-XL	.	32f-X	.	.	.	.	.	.	.
.	.	32a-X	.	.	.	.	.	.	.
.	.	32f-X	.	.	.	.	.	.	.
.	.	32a-X	.	.	.	.	.	.	.
16D-L	.	32f-X	.	.	.	.	.	.	.
.	.	32a-X	.	.	.	.	.	.	.
16FF-XJJ)	.	32f-X	.	.	.	.	.	.	.
.	.	32a-XJJJ)	.	.	.	.	.	.	.
=10	=10	=10	=10	=10	=10	=10	=10	=10	=10
(16D-XLL	.	(32f-XLLL	.	8ee-L]	.	8eee-L]	.	2f-] 2a-]	.
.	.	32a-X	.	.	.	.	.	.	.
16DD-XJ	.	32f-X	.	.	.	.	.	.	.
.	.	32a-X	.	.	.	.	.	.	.
8EE-XJ	.	32f-X	.	(16ee-XL	.	(16eee-XL	.	.	.
.	.	32a-X	.	.	.	.	.	.	.
.	.	32f-X	.	16dd-XJJ	.	16ddd-XJJ	.	.	.
.	.	32a-X	.	.	.	.	.	.	.
8C-XL	.	32f-X	.	4f-X))	.	4ff-X))	.	.	.
.	.	32a-X	.	.	.	.	.	.	.
.	.	32f-X	.	.	.	.	.	.	.
.	.	32a-X	.	.	.	.	.	.	.
16D-L	.	32f-X	.	.	.	.	.	.	.
.	.	32a-X	.	.	.	.	.	.	.
16FF-XJJ)	.	32f-X	.	.	.	.	.	.	.
.	.	32a-XJJJ)	.	.	.	.	.	.	.
*	*	*Xtremolo	*	*	*	*	*	*	*
=	=	=	=	=	=	=	=	=	=
*-	*-	*-	*-	*-	*-	*-	*-	*-	*-
!!!system-decoration: [(s1)][([(s2,s3)]s4,s5)]
!!!EED: Rafael Laurindo
!!!EEV: 2021/10/18
!!!EED2: Gabriella Vici
!!!EEV2: 2022/03/10
